X:1
T:We Never Had Such Taxes
M:2/2
L:1/4
K:D
 A| D D F G| A A G3/2 E/2| D/2 D3/2 F3/2 G/2| A3| A| G E E E| F D D D|\
 A3/2 A/2 G E| D3| A| d d c B| A A F A| d d c B| A3| A| B F G G| B d c B/2B/2|\
 A/2A/2 A/2A/2 A E| F3| A| D D F G| A A G E| D D F G| A3| B| G/2 E3/2 E E|\
 F D D D| A2 G3/2 C/2| D3||

